X:72
T:Flowers in the valley - Gilbert
%%VWML:SBG-1-2-395-0
F:http://www.vwml.org/record/SBG/1/2/395
Z:Original Sibelius transcriptions by M. & S. Graebe
M:4/4
I:linebreak $
K:C
V:1 treble nm="P1"
V:1
 C C/C/ C G | _B A/A/ G G | C D/E/ F E/D/ | D2 C :| C C/ C/ C G |$ _B A/A/ G G/ z/ | %6
 C D/E/ F E/D/ | D2 C :| G G G G |$ G F/E/ D C | c _B/A/ G/A/ B/A/ | G3 G | C D/E/ F E/D/ | %13
 D C x2 | %14
T:Flowers in the valley - Old
F:http://www.vwml.org/record/SBG/1/2/395
Z:Original Sibelius transcriptions by M. & S. Graebe
L:1/8
M:4/4
I:linebreak $
K:C
V:1 treble nm="P1"
V:2 treble 
V:1
 C | C2 D E F2 F G | _A2 G F G G z C | C2 D E F2 E D | D3 C z :| G | G3 A _B3 A |$ G3 F E2 D C | %8
 C4 c2 z2 | c2 _B A GA BA | (G4 G2) z C | C2 D E F2 E D | D2 C2 x2 x2 | %13
V:2
 x | x8 | x8 | x8 | x5 :| x | x8 |$ x8 | x4 C2 x2 | x8 | x8 | x8 | x8 | %13

